;FLAVOR:Marlin
;TIME:4613
;Filament used: 3.36797m
;Layer height: 0.2
;MINX:68.578
;MINY:76.082
;MINZ:0.2
;MAXX:166.422
;MAXY:158.918
;MAXZ:6.6
;Generated with Cura_SteamEngine 4.12.1
M140 S50
M105
M190 S50
M104 S200
M105
M109 S200
M82 ;absolute extrusion mode
; Ender 3 Custom Start G-code
G92 E0 ; Reset Extruder
G28 ; Home all axes
G1 Z2.0 F3000 ; Move Z Axis up little to prevent scratching of Heat Bed
G1 X0.1 Y20 Z0.3 F5000.0 ; Move to start position
G1 X0.1 Y200.0 Z0.3 F1500.0 E15 ; Draw the first line
G1 X0.4 Y200.0 Z0.3 F5000.0 ; Move to side a little
G1 X0.4 Y20 Z0.3 F1500.0 E30 ; Draw the second line
G92 E0 ; Reset Extruder
G1 Z2.0 F3000 ; Move Z Axis up little to prevent scratching of Heat Bed
G1 X5 Y20 Z0.3 F5000.0 ; Move over to prevent blob squish
G92 E0
G92 E0
G1 F2700 E-5
;LAYER_COUNT:33
;LAYER:0
M107
G0 F6000 X72.63 Y78.791 Z0.2
;TYPE:SKIRT
G1 F2700 E0
G1 F1200 X73.367 Y78.211 E0.03119
G1 X74.151 Y77.696 E0.06239
G1 X74.976 Y77.25 E0.09358
G1 X75.836 Y76.875 E0.12479
G1 X76.725 Y76.576 E0.15599
G1 X77.495 Y76.382 E0.1824
G1 X77.715 Y76.335 E0.18988
G1 X78.64 Y76.178 E0.22108
G1 X79.597 Y76.1 E0.25302
G1 X79.782 Y76.093 E0.25918
G1 X80.097 Y76.085 E0.26966
G1 X80.423 Y76.082 E0.2805
G1 X154.293 Y76.082 E2.73743
G1 X155.173 Y76.094 E2.7667
G1 X156.11 Y76.149 E2.79792
G1 X157.038 Y76.283 E2.8291
G1 X157.735 Y76.438 E2.85285
G1 X157.93 Y76.488 E2.85955
G1 X158.828 Y76.759 E2.89074
G1 X159.699 Y77.106 E2.92193
G1 X160.538 Y77.526 E2.95313
G1 X161.338 Y78.016 E2.98434
G1 X162.093 Y78.572 E3.01552
G1 X162.798 Y79.19 E3.04671
G1 X163.688 Y80.149 E3.09022
G1 X163.889 Y80.393 E3.10074
G1 X164.454 Y81.142 E3.13194
G1 X164.953 Y81.936 E3.16313
G1 X165.383 Y82.769 E3.19431
G1 X165.74 Y83.637 E3.22553
G1 X165.935 Y84.226 E3.24616
G1 X165.953 Y84.286 E3.24825
G1 X166.184 Y85.195 E3.27944
G1 X166.337 Y86.121 E3.31066
G1 X166.417 Y87.346 E3.35149
G1 X166.422 Y88.089 E3.3762
G1 X166.419 Y88.426 E3.38741
G1 X166.418 Y146.274 E5.31144
G1 X166.422 Y146.688 E5.32521
G1 X166.419 Y147.55 E5.35388
G1 X166.376 Y148.487 E5.38508
G1 X166.253 Y149.417 E5.41628
G1 X166.051 Y150.333 E5.44748
G1 X165.772 Y151.228 E5.47866
G1 X165.563 Y151.766 E5.49786
G1 X165.485 Y151.952 E5.50457
G1 X165.086 Y152.801 E5.53577
G1 X164.616 Y153.612 E5.56694
G1 X163.838 Y154.683 E5.61097
G1 X163.704 Y154.846 E5.61799
G1 X163.078 Y155.545 E5.6492
G1 X162.395 Y156.187 E5.68037
G1 X161.66 Y156.77 E5.71158
G1 X160.877 Y157.287 E5.74279
G1 X160.054 Y157.736 E5.77397
G1 X159.195 Y158.113 E5.80517
G1 X158.307 Y158.415 E5.83636
G1 X157.505 Y158.618 E5.86388
G1 X157.285 Y158.665 E5.87136
G1 X156.36 Y158.822 E5.90257
G1 X155.403 Y158.9 E5.9345
G1 X155.218 Y158.907 E5.94066
G1 X154.903 Y158.915 E5.95114
G1 X154.577 Y158.918 E5.96198
G1 X80.558 Y158.917 E8.42387
G1 X79.894 Y158.908 E8.44595
G1 X78.958 Y158.855 E8.47713
G1 X77.642 Y158.644 E8.52146
G1 X77.414 Y158.593 E8.52923
G1 X76.508 Y158.349 E8.56044
G1 X75.626 Y158.029 E8.59165
G1 X74.775 Y157.636 E8.62283
G1 X73.961 Y157.171 E8.65401
G1 X73.189 Y156.638 E8.68521
G1 X72.203 Y155.799 E8.72827
G1 X72.034 Y155.637 E8.73605
G1 X71.385 Y154.96 E8.76725
G1 X70.797 Y154.23 E8.79842
G1 X70.272 Y153.452 E8.82964
G1 X69.816 Y152.633 E8.86082
G1 X69.431 Y151.777 E8.89204
G1 X69.041 Y150.618 E8.93271
G1 X68.987 Y150.422 E8.93947
G1 X68.777 Y149.508 E8.97066
G1 X68.645 Y148.579 E9.00187
G1 X68.593 Y147.669 E9.03219
G1 X68.581 Y146.783 E9.06166
G1 X68.582 Y88.711 E10.99314
G1 X68.578 Y88.289 E11.00718
G1 X68.581 Y87.449 E11.03512
G1 X68.624 Y86.512 E11.06631
G1 X68.747 Y85.582 E11.09751
G1 X68.949 Y84.666 E11.12871
G1 X69.228 Y83.771 E11.15989
G1 X69.429 Y83.253 E11.17837
G1 X69.507 Y83.066 E11.18511
G1 X69.904 Y82.217 E11.21629
G1 X70.373 Y81.405 E11.24747
G1 X71.183 Y80.29 E11.29331
G1 X71.317 Y80.128 E11.3003
G1 X71.945 Y79.431 E11.33151
G1 X72.63 Y78.791 E11.36269
G0 F6000 X72.916 Y79.072
G1 F1200 X73.642 Y78.506 E11.39331
G1 X74.414 Y78.005 E11.42392
G1 X75.227 Y77.573 E11.45454
G1 X76.075 Y77.213 E11.48518
G1 X76.95 Y76.927 E11.5158
G1 X77.578 Y76.773 E11.5373
G1 X77.798 Y76.726 E11.54478
G1 X78.706 Y76.573 E11.57541
G1 X79.612 Y76.5 E11.60564
G1 X80.1 Y76.485 E11.62188
G1 X80.426 Y76.482 E11.63272
G1 X154.293 Y76.482 E14.08955
G1 X155.167 Y76.494 E14.11862
G1 X156.086 Y76.548 E14.14924
G1 X156.997 Y76.682 E14.17987
G1 X157.636 Y76.825 E14.20165
G1 X157.831 Y76.875 E14.20834
G1 X158.712 Y77.142 E14.23896
G1 X159.566 Y77.485 E14.26957
G1 X160.388 Y77.9 E14.3002
G1 X161.17 Y78.386 E14.33082
G1 X161.908 Y78.937 E14.36145
G1 X162.594 Y79.55 E14.39205
G1 X163.379 Y80.403 E14.43061
G1 X163.58 Y80.647 E14.44112
G1 X164.134 Y81.383 E14.47176
G1 X164.623 Y82.163 E14.50238
G1 X165.041 Y82.983 E14.53299
G1 X165.387 Y83.837 E14.56364
G1 X165.57 Y84.401 E14.58336
G1 X165.796 Y85.294 E14.614
G1 X165.944 Y86.202 E14.6446
G1 X166.017 Y87.35 E14.68286
G1 X166.022 Y88.085 E14.7073
G1 X166.019 Y88.422 E14.71851
G1 X166.018 Y146.279 E16.64284
G1 X166.022 Y146.687 E16.65642
G1 X166.019 Y147.549 E16.68509
G1 X165.976 Y148.469 E16.71572
G1 X165.853 Y149.381 E16.74633
G1 X165.651 Y150.279 E16.77694
G1 X165.373 Y151.157 E16.80757
G1 X165.194 Y151.611 E16.8238
G1 X165.116 Y151.797 E16.83051
G1 X164.724 Y152.63 E16.86113
G1 X164.26 Y153.426 E16.89178
G1 X163.529 Y154.429 E16.93306
G1 X163.395 Y154.592 E16.94007
G1 X162.78 Y155.278 E16.97072
G1 X162.108 Y155.907 E17.00133
G1 X161.384 Y156.475 E17.03194
G1 X160.613 Y156.979 E17.06257
G1 X159.802 Y157.413 E17.09317
G1 X158.955 Y157.776 E17.12382
G1 X158.081 Y158.064 E17.15442
G1 X157.422 Y158.227 E17.177
G1 X157.202 Y158.274 E17.18449
G1 X156.294 Y158.427 E17.21511
G1 X155.388 Y158.5 E17.24534
G1 X154.9 Y158.515 E17.26158
G1 X154.574 Y158.518 E17.27242
G1 X80.563 Y158.517 E19.73404
G1 X79.899 Y158.508 E19.75613
G1 X78.98 Y158.456 E19.78674
G1 X77.729 Y158.253 E19.82889
G1 X77.501 Y158.202 E19.83667
G1 X76.612 Y157.963 E19.86728
G1 X75.748 Y157.647 E19.89788
G1 X74.914 Y157.257 E19.9285
G1 X74.116 Y156.796 E19.95916
G1 X73.362 Y156.268 E19.98977
G1 X72.48 Y155.51 E20.02845
G1 X72.311 Y155.348 E20.03624
G1 X71.674 Y154.683 E20.06687
G1 X71.098 Y153.965 E20.09748
G1 X70.587 Y153.199 E20.12811
G1 X70.143 Y152.393 E20.15871
G1 X69.772 Y151.55 E20.18935
G1 X69.427 Y150.512 E20.22573
G1 X69.373 Y150.316 E20.23249
G1 X69.167 Y149.418 E20.26313
G1 X69.04 Y148.506 E20.29376
G1 X68.993 Y147.663 E20.32184
G1 X68.981 Y146.783 E20.35111
G1 X68.982 Y88.666 E22.28409
G1 X68.978 Y88.29 E22.2966
G1 X68.981 Y87.45 E22.32454
G1 X69.024 Y86.531 E22.35514
G1 X69.147 Y85.618 E22.38578
G1 X69.349 Y84.72 E22.41639
G1 X69.628 Y83.842 E22.44703
G1 X69.798 Y83.407 E22.46257
G1 X69.876 Y83.22 E22.46931
G1 X70.267 Y82.387 E22.49991
G1 X70.729 Y81.59 E22.53055
G1 X71.491 Y80.545 E22.57357
G1 X71.625 Y80.383 E22.58056
G1 X72.242 Y79.7 E22.61117
G1 X72.916 Y79.072 E22.64181
G0 F6000 X73.202 Y79.355
G1 F1200 X73.916 Y78.802 E22.67185
G1 X74.677 Y78.315 E22.7019
G1 X75.477 Y77.897 E22.73192
G1 X76.312 Y77.551 E22.76199
G1 X77.173 Y77.281 E22.792
G1 X77.662 Y77.164 E22.80872
G1 X77.882 Y77.117 E22.8162
G1 X78.773 Y76.968 E22.84625
G1 X79.627 Y76.899 E22.87475
G1 X79.812 Y76.892 E22.8809
G1 X80.104 Y76.885 E22.89062
G1 X80.43 Y76.882 E22.90146
G1 X154.293 Y76.882 E25.35815
G1 X155.161 Y76.894 E25.38703
G1 X156.063 Y76.948 E25.41708
G1 X156.956 Y77.082 E25.44712
G1 X157.536 Y77.213 E25.46689
G1 X157.731 Y77.263 E25.47359
G1 X158.595 Y77.525 E25.50362
G1 X159.433 Y77.864 E25.53368
G1 X160.237 Y78.275 E25.56372
G1 X161.002 Y78.755 E25.59375
G1 X161.721 Y79.301 E25.62378
G1 X162.389 Y79.909 E25.65382
G1 X163.071 Y80.658 E25.68752
G1 X163.272 Y80.902 E25.69803
G1 X163.815 Y81.623 E25.72805
G1 X164.291 Y82.39 E25.75807
G1 X164.698 Y83.197 E25.78814
G1 X165.169 Y84.456 E25.83285
G1 X165.187 Y84.516 E25.83493
G1 X165.408 Y85.392 E25.86498
G1 X165.55 Y86.283 E25.89499
G1 X165.617 Y87.353 E25.93064
G1 X165.622 Y88.082 E25.95489
G1 X165.619 Y88.419 E25.9661
G1 X165.618 Y146.284 E27.8907
G1 X165.622 Y146.685 E27.90404
G1 X165.619 Y147.547 E27.93271
G1 X165.576 Y148.45 E27.96277
G1 X165.453 Y149.344 E27.99279
G1 X165.252 Y150.225 E28.02284
G1 X164.825 Y151.457 E28.06621
G1 X164.747 Y151.643 E28.07292
G1 X164.362 Y152.459 E28.10293
G1 X163.905 Y153.238 E28.13297
G1 X163.22 Y154.175 E28.17157
G1 X163.086 Y154.338 E28.17859
G1 X162.482 Y155.01 E28.20864
G1 X161.822 Y155.626 E28.23867
G1 X161.109 Y156.18 E28.2687
G1 X160.35 Y156.67 E28.29875
G1 X159.551 Y157.09 E28.32877
G1 X158.717 Y157.438 E28.35883
G1 X157.856 Y157.711 E28.38887
G1 X157.338 Y157.836 E28.4066
G1 X157.118 Y157.883 E28.41408
G1 X156.227 Y158.032 E28.44412
G1 X155.373 Y158.101 E28.47262
G1 X155.188 Y158.108 E28.47878
G1 X154.896 Y158.115 E28.48849
G1 X154.57 Y158.118 E28.49934
G1 X80.569 Y158.117 E30.96062
G1 X79.905 Y158.108 E30.98271
G1 X79.003 Y158.056 E31.01276
G1 X77.816 Y157.863 E31.05276
G1 X77.588 Y157.812 E31.06053
G1 X76.717 Y157.576 E31.09054
G1 X75.869 Y157.264 E31.12059
G1 X75.053 Y156.878 E31.15062
G1 X74.274 Y156.421 E31.18066
G1 X73.538 Y155.898 E31.21069
G1 X72.757 Y155.221 E31.24506
G1 X72.588 Y155.059 E31.25285
G1 X71.964 Y154.406 E31.28289
G1 X71.401 Y153.7 E31.31292
G1 X70.902 Y152.948 E31.34294
G1 X70.472 Y152.153 E31.373
G1 X70.113 Y151.324 E31.40305
G1 X69.812 Y150.405 E31.43521
G1 X69.758 Y150.209 E31.44198
G1 X69.557 Y149.329 E31.472
G1 X69.435 Y148.434 E31.50204
G1 X69.393 Y147.656 E31.52796
G1 X69.381 Y146.783 E31.557
G1 X69.382 Y88.666 E33.48997
G1 X69.378 Y88.292 E33.50241
G1 X69.381 Y87.452 E33.53035
G1 X69.424 Y86.549 E33.56042
G1 X69.547 Y85.655 E33.59044
G1 X69.749 Y84.774 E33.6205
G1 X70.167 Y83.561 E33.66317
G1 X70.245 Y83.374 E33.66991
G1 X70.629 Y82.557 E33.69994
G1 X71.084 Y81.777 E33.72997
G1 X71.799 Y80.8 E33.77024
G1 X71.933 Y80.638 E33.77723
G1 X72.539 Y79.968 E33.80728
G1 X73.202 Y79.355 E33.83731
G1 F2700 E28.83731
;MESH:Bo??tierS63couvercle.stl
G0 F6000 X125.665 Y141.173
G0 X124.23 Y141.173
G0 X124.4 Y143.1
;TYPE:WALL-INNER
G1 F2700 E33.83731
G1 F1200 X150.6 Y143.1 E34.70873
G1 X150.6 Y124.9 E35.31406
G1 X124.4 Y124.9 E36.18548
G1 X124.4 Y143.1 E36.79081
G0 F6000 X124.8 Y142.7
;TYPE:WALL-OUTER
G1 F1200 X150.2 Y142.7 E37.63562
G1 X150.2 Y125.3 E38.21434
G1 X124.8 Y125.3 E39.05915
G1 X124.8 Y142.7 E39.63788
G1 F2700 E34.63788
G0 F6000 X124.5 Y142.7
G0 X135.851 Y143.27
G0 X135.851 Y141.835
G0 X156.084 Y143.298
G0 X154.628 Y143.298
G0 X154.818 Y147.318
;TYPE:WALL-INNER
G1 F2700 E39.63788
G1 F1200 X80.181 Y147.318 E42.12031
G1 X80.182 Y87.682 E44.10382
G1 X154.819 Y87.682 E46.58625
G1 X154.818 Y147.318 E48.56975
G0 F6000 X155.097 Y147.696
;TYPE:WALL-OUTER
G1 F1200 X154.983 Y147.718 E48.57362
G1 X80.018 Y147.718 E51.06696
G1 X79.895 Y147.683 E51.07121
G1 X79.816 Y147.604 E51.07493
G1 X79.781 Y147.481 E51.07918
G1 X79.782 Y87.482 E53.07476
G1 X79.903 Y87.304 E53.08192
G1 X80.017 Y87.282 E53.08578
G1 X154.981 Y87.282 E55.57909
G1 X155.098 Y87.305 E55.58306
G1 X155.219 Y87.486 E55.5903
G1 X155.218 Y147.518 E57.58697
G1 X155.097 Y147.696 E57.59413
G0 F6000 X154.926 Y147.432
G0 X154.428 Y147.208
G0 X154.428 Y146.928
;TYPE:SKIN
G1 F1200 X80.571 Y146.928 E60.05062
G1 X80.572 Y88.072 E62.00818
G1 X154.429 Y88.072 E64.46468
G1 X154.428 Y146.928 E66.42223
G1 F2700 E61.42223
G0 F6000 X154.428 Y147.208
G0 X150.71 Y147.108
G0 X150.71 Y148.583
G0 X149.347 Y141.847
G0 X150.71 Y143.29
G1 F2700 E66.42223
G0 F6000 X150.99 Y143.49
G1 F1200 X150.99 Y124.51 E67.05351
G1 X124.01 Y124.51 E67.95087
G1 X124.01 Y143.49 E68.58215
G1 X150.99 Y143.49 E69.47951
G1 F2700 E64.47951
G0 F6000 X150.71 Y143.24
G0 X150.77 Y139.649
G0 X149.335 Y139.649
G0 X156.084 Y124.706
G0 X154.628 Y124.706
G0 X154.708 Y88.65
G1 F2700 E69.47951
G0 F6000 X154.268 Y88.649
G1 F1200 X153.851 Y88.232 E69.49912
G0 F6000 X153.285 Y88.232
G1 F1200 X154.268 Y89.214 E69.54533
G0 F6000 X154.268 Y89.78
G1 F1200 X152.72 Y88.232 E69.61815
G0 F6000 X152.154 Y88.232
G1 F1200 X154.268 Y90.346 E69.71758
G0 F6000 X154.268 Y90.912
G1 F1200 X151.588 Y88.232 E69.84364
G0 F6000 X151.023 Y88.232
G1 F1200 X154.268 Y91.477 E69.99628
G0 F6000 X154.268 Y92.043
G1 F1200 X150.457 Y88.232 E70.17554
G0 F6000 X149.891 Y88.232
G1 F1200 X154.268 Y92.609 E70.38142
G0 F6000 X154.268 Y93.174
G1 F1200 X149.326 Y88.232 E70.61387
G0 F6000 X148.76 Y88.232
G1 F1200 X154.268 Y93.74 E70.87295
G0 F6000 X154.268 Y94.306
G1 F1200 X148.194 Y88.232 E71.15865
G0 F6000 X147.629 Y88.232
G1 F1200 X154.268 Y94.871 E71.47093
G0 F6000 X154.268 Y95.437
G1 F1200 X147.063 Y88.232 E71.80983
G0 F6000 X146.497 Y88.232
G1 F1200 X154.268 Y96.003 E72.17536
G0 F6000 X154.268 Y96.568
G1 F1200 X145.931 Y88.232 E72.56748
G0 F6000 X145.366 Y88.232
G1 F1200 X154.268 Y97.134 E72.9862
G0 F6000 X154.268 Y97.7
G1 F1200 X144.8 Y88.232 E73.43155
G0 F6000 X144.234 Y88.232
G1 F1200 X154.268 Y98.265 E73.90349
G0 F6000 X154.268 Y98.831
G1 F1200 X143.669 Y88.232 E74.40204
G0 F6000 X143.103 Y88.232
G1 F1200 X154.268 Y99.397 E74.92721
G0 F6000 X154.268 Y99.962
G1 F1200 X142.537 Y88.232 E75.47897
G0 F6000 X141.972 Y88.232
G1 F1200 X154.268 Y100.528 E76.05734
G0 F6000 X154.268 Y101.094
G1 F1200 X141.406 Y88.232 E76.66233
G0 F6000 X140.84 Y88.232
G1 F1200 X154.268 Y101.66 E77.29394
G0 F6000 X154.268 Y102.225
G1 F1200 X140.275 Y88.232 E77.95213
G0 F6000 X139.709 Y88.232
G1 F1200 X154.268 Y102.791 E78.63694
G0 F6000 X154.268 Y103.357
G1 F1200 X139.143 Y88.232 E79.34837
G0 F6000 X138.578 Y88.232
G1 F1200 X154.268 Y103.922 E80.08638
G0 F6000 X154.268 Y104.488
G1 F1200 X138.012 Y88.232 E80.85101
G0 F6000 X137.446 Y88.232
G1 F1200 X154.268 Y105.054 E81.64227
G0 F6000 X154.268 Y105.619
G1 F1200 X136.881 Y88.232 E82.4601
G0 F6000 X136.315 Y88.232
G1 F1200 X154.268 Y106.185 E83.30455
G0 F6000 X154.268 Y106.751
G1 F1200 X135.749 Y88.232 E84.17563
G0 F6000 X135.183 Y88.232
G1 F1200 X154.268 Y107.316 E85.07331
G0 F6000 X154.268 Y107.882
G1 F1200 X134.618 Y88.232 E85.99758
G0 F6000 X134.052 Y88.232
G1 F1200 X154.268 Y108.448 E86.94848
G0 F6000 X154.268 Y109.013
G1 F1200 X133.486 Y88.232 E87.92598
G0 F6000 X132.921 Y88.232
G1 F1200 X154.268 Y109.579 E88.93008
G0 F6000 X154.268 Y110.145
G1 F1200 X132.355 Y88.232 E89.9608
G0 F6000 X131.789 Y88.232
G1 F1200 X154.268 Y110.711 E91.01814
G0 F6000 X154.268 Y111.276
G1 F1200 X131.224 Y88.232 E92.10206
G0 F6000 X130.658 Y88.232
G1 F1200 X154.268 Y111.842 E93.2126
G0 F6000 X154.268 Y112.408
G1 F1200 X130.092 Y88.232 E94.34977
G0 F6000 X129.527 Y88.232
G1 F1200 X154.268 Y112.973 E95.51351
G0 F6000 X154.268 Y113.539
G1 F1200 X128.961 Y88.232 E96.70387
G0 F6000 X128.395 Y88.232
G1 F1200 X154.268 Y114.105 E97.92086
G0 F6000 X154.268 Y114.67
G1 F1200 X127.83 Y88.232 E99.16442
G0 F6000 X127.264 Y88.232
G1 F1200 X154.268 Y115.236 E100.43461
G0 F6000 X154.268 Y115.802
G1 F1200 X126.698 Y88.232 E101.73142
G0 F6000 X126.133 Y88.232
G1 F1200 X154.268 Y116.367 E103.0548
G0 F6000 X154.268 Y116.933
G1 F1200 X125.567 Y88.232 E104.40481
G0 F6000 X125.001 Y88.232
G1 F1200 X154.268 Y117.499 E105.78144
G0 F6000 X154.268 Y118.064
G1 F1200 X124.435 Y88.232 E107.18467
G0 F6000 X123.87 Y88.232
G1 F1200 X154.268 Y118.629 E108.61447
G0 F6000 X154.268 Y119.195
G1 F1200 X123.304 Y88.232 E110.0709
G0 F6000 X122.738 Y88.232
G1 F1200 X154.268 Y119.761 E111.55395
G0 F6000 X154.268 Y120.326
G1 F1200 X122.173 Y88.232 E113.06358
G0 F6000 X121.607 Y88.232
G1 F1200 X154.268 Y120.892 E114.59983
G0 F6000 X154.268 Y121.458
G1 F1200 X121.041 Y88.232 E116.1627
G0 F6000 X120.476 Y88.232
G1 F1200 X154.268 Y122.024 E117.75217
G0 F6000 X154.268 Y122.589
G1 F1200 X119.91 Y88.232 E119.36824
G0 F6000 X119.344 Y88.232
G1 F1200 X154.268 Y123.155 E121.01094
G0 F6000 X154.268 Y123.721
G1 F1200 X118.779 Y88.232 E122.68023
G0 F6000 X118.213 Y88.232
G1 F1200 X154.268 Y124.286 E124.37612
G0 F6000 X154.268 Y124.852
G1 F1200 X117.647 Y88.232 E126.09864
G0 F6000 X117.082 Y88.232
G1 F1200 X154.268 Y125.418 E127.84776
G0 F6000 X154.268 Y125.983
G1 F1200 X116.516 Y88.232 E129.62347
G0 F6000 X115.95 Y88.232
G1 F1200 X154.268 Y126.549 E131.42581
G0 F6000 X154.268 Y127.115
G1 F1200 X115.384 Y88.232 E133.25477
G0 F6000 X114.819 Y88.232
G1 F1200 X150.936 Y124.348 E134.95358
