;FLAVOR:Marlin
;TIME:7813
;Filament used: 7.7181m
;Layer height: 0.28
;MINX:68
;MINY:75.5
;MINZ:0.28
;MAXX:167
;MAXY:159.5
;MAXZ:29.12
;Generated with Cura_SteamEngine 4.12.1
M140 S50
M105
M190 S50
M104 S200
M105
M109 S200
M82 ;absolute extrusion mode
; Ender 3 Custom Start G-code
G92 E0 ; Reset Extruder
G28 ; Home all axes
G1 Z2.0 F3000 ; Move Z Axis up little to prevent scratching of Heat Bed
G1 X0.1 Y20 Z0.3 F5000.0 ; Move to start position
G1 X0.1 Y200.0 Z0.3 F1500.0 E15 ; Draw the first line
G1 X0.4 Y200.0 Z0.3 F5000.0 ; Move to side a little
G1 X0.4 Y20 Z0.3 F1500.0 E30 ; Draw the second line
G92 E0 ; Reset Extruder
G1 Z2.0 F3000 ; Move Z Axis up little to prevent scratching of Heat Bed
G1 X5 Y20 Z0.3 F5000.0 ; Move over to prevent blob squish
G92 E0
G92 E0
G1 F2700 E-5
;LAYER_COUNT:104
;LAYER:0
M107
G0 F6000 X71.886 Y78.127 Z0.28
;TYPE:SKIRT
G1 F2700 E0
G1 F1200 X72.626 Y77.551 E0.04367
G1 X73.412 Y77.039 E0.08735
G1 X74.239 Y76.597 E0.13101
G1 X75.101 Y76.227 E0.17469
G1 X75.991 Y75.931 E0.21836
G1 X76.903 Y75.713 E0.26203
G1 X77.83 Y75.572 E0.30569
G1 X78.701 Y75.513 E0.34634
G1 X79.022 Y75.504 E0.36129
G1 X79.33 Y75.5 E0.37563
G1 X155.293 Y75.5 E3.91279
G1 X156.149 Y75.511 E3.95265
G1 X157.085 Y75.565 E3.99631
G1 X158.013 Y75.697 E4.03995
G1 X158.927 Y75.909 E4.08364
G1 X159.819 Y76.198 E4.1273
G1 X160.684 Y76.561 E4.17099
G1 X161.514 Y76.997 E4.21464
G1 X162.305 Y77.502 E4.25834
G1 X163.049 Y78.073 E4.30201
G1 X163.742 Y78.705 E4.34568
G1 X164.379 Y79.393 E4.38934
G1 X164.954 Y80.134 E4.43302
G1 X165.465 Y80.92 E4.47667
G1 X165.907 Y81.748 E4.52038
G1 X166.276 Y82.61 E4.56404
G1 X166.571 Y83.5 E4.6077
G1 X166.789 Y84.412 E4.65136
G1 X166.929 Y85.34 E4.69506
G1 X166.987 Y86.201 E4.73524
G1 X166.996 Y86.521 E4.75015
G1 X167 Y86.83 E4.76454
G1 X166.999 Y147.9 E7.60821
G1 X166.99 Y148.627 E7.64207
G1 X166.939 Y149.564 E7.68576
G1 X166.807 Y150.492 E7.72941
G1 X166.598 Y151.406 E7.77307
G1 X166.311 Y152.299 E7.81674
G1 X165.949 Y153.165 E7.86045
G1 X165.515 Y153.996 E7.9041
G1 X165.011 Y154.787 E7.94778
G1 X164.442 Y155.532 E7.99143
G1 X163.811 Y156.227 E8.03514
G1 X163.124 Y156.865 E8.0788
G1 X162.385 Y157.442 E8.12245
G1 X161.599 Y157.954 E8.16613
G1 X160.773 Y158.397 E8.20978
G1 X159.911 Y158.769 E8.25349
G1 X159.022 Y159.065 E8.29712
G1 X158.11 Y159.285 E8.34081
G1 X157.183 Y159.426 E8.38447
G1 X156.299 Y159.487 E8.42573
G1 X155.978 Y159.496 E8.44068
G1 X155.67 Y159.5 E8.45503
G1 X79.565 Y159.499 E11.99879
G1 X78.867 Y159.49 E12.0313
G1 X77.931 Y159.438 E12.07495
G1 X77.002 Y159.306 E12.11864
G1 X76.088 Y159.096 E12.16231
G1 X75.195 Y158.809 E12.20599
G1 X74.33 Y158.446 E12.24967
G1 X73.499 Y158.012 E12.29332
G1 X72.708 Y157.508 E12.337
G1 X71.963 Y156.938 E12.38068
G1 X71.269 Y156.307 E12.42435
G1 X70.632 Y155.62 E12.46798
G1 X70.055 Y154.88 E12.51167
G1 X69.543 Y154.094 E12.55535
G1 X69.1 Y153.267 E12.59904
G1 X68.729 Y152.406 E12.64269
G1 X68.433 Y151.516 E12.68637
G1 X68.214 Y150.604 E12.73004
G1 X68.073 Y149.677 E12.7737
G1 X68.013 Y148.788 E12.81519
G1 X68.004 Y148.455 E12.8307
G1 X68 Y148.158 E12.84453
G1 X68.001 Y87.025 E15.69114
G1 X68.01 Y86.36 E15.72211
G1 X68.063 Y85.424 E15.76576
G1 X68.195 Y84.495 E15.80946
G1 X68.406 Y83.581 E15.85313
G1 X68.694 Y82.689 E15.89678
G1 X69.057 Y81.824 E15.94046
G1 X69.492 Y80.993 E15.98414
G1 X69.996 Y80.203 E16.02777
G1 X70.566 Y79.458 E16.07145
G1 X71.198 Y78.764 E16.11516
G1 X71.886 Y78.127 E16.15882
G0 F6000 X72.274 Y78.323
G1 F1200 X73.01 Y77.77 E16.20168
G1 X73.791 Y77.282 E16.24457
G1 X74.611 Y76.864 E16.28742
G1 X75.465 Y76.519 E16.33031
G1 X76.345 Y76.249 E16.37317
G1 X77.245 Y76.057 E16.41603
G1 X78.159 Y75.943 E16.45891
G1 X78.712 Y75.913 E16.4847
G1 X79.033 Y75.904 E16.49966
G1 X79.33 Y75.9 E16.51349
G1 X155.293 Y75.9 E20.05064
G1 X156.143 Y75.911 E20.09022
G1 X157.062 Y75.964 E20.13309
G1 X157.973 Y76.097 E20.17596
G1 X158.869 Y76.308 E20.21882
G1 X159.743 Y76.596 E20.26167
G1 X160.59 Y76.959 E20.30458
G1 X161.401 Y77.394 E20.34743
G1 X162.171 Y77.898 E20.39028
G1 X162.895 Y78.467 E20.43316
G1 X163.567 Y79.097 E20.47605
G1 X164.182 Y79.782 E20.51892
G1 X164.735 Y80.518 E20.56179
G1 X165.222 Y81.299 E20.60464
G1 X165.639 Y82.12 E20.64752
G1 X165.984 Y82.974 E20.69041
G1 X166.253 Y83.854 E20.73326
G1 X166.445 Y84.755 E20.77615
G1 X166.558 Y85.668 E20.81899
G1 X166.587 Y86.212 E20.84436
G1 X166.596 Y86.532 E20.85927
G1 X166.6 Y86.83 E20.87314
G1 X166.599 Y147.895 E23.71659
G1 X166.59 Y148.622 E23.75044
G1 X166.539 Y149.541 E23.7933
G1 X166.408 Y150.453 E23.8362
G1 X166.198 Y151.349 E23.87905
G1 X165.912 Y152.224 E23.92192
G1 X165.551 Y153.071 E23.96479
G1 X165.117 Y153.883 E24.00766
G1 X164.615 Y154.655 E24.05054
G1 X164.047 Y155.38 E24.09343
G1 X163.419 Y156.053 E24.13629
G1 X162.735 Y156.669 E24.17915
G1 X162 Y157.223 E24.22201
G1 X161.22 Y157.712 E24.26488
G1 X160.4 Y158.131 E24.30776
G1 X159.547 Y158.477 E24.35062
G1 X158.667 Y158.748 E24.39349
G1 X157.767 Y158.941 E24.43635
G1 X156.853 Y159.056 E24.47925
G1 X156.288 Y159.087 E24.5056
G1 X155.967 Y159.096 E24.52055
G1 X155.67 Y159.1 E24.53438
G1 X79.57 Y159.099 E28.07792
G1 X78.872 Y159.09 E28.11042
G1 X77.953 Y159.038 E28.15328
G1 X77.042 Y158.907 E28.19614
G1 X76.146 Y158.697 E28.23899
G1 X75.271 Y158.41 E28.28187
G1 X74.424 Y158.048 E28.32476
G1 X73.612 Y157.614 E28.36763
G1 X72.841 Y157.112 E28.41047
G1 X72.116 Y156.544 E28.45336
G1 X71.443 Y155.915 E28.49625
G1 X70.828 Y155.231 E28.53908
G1 X70.274 Y154.496 E28.58194
G1 X69.786 Y153.715 E28.62482
G1 X69.367 Y152.895 E28.6677
G1 X69.021 Y152.042 E28.71056
G1 X68.751 Y151.162 E28.75343
G1 X68.558 Y150.261 E28.79633
G1 X68.444 Y149.348 E28.83918
G1 X68.413 Y148.777 E28.8658
G1 X68.404 Y148.444 E28.88131
G1 X68.4 Y148.158 E28.89463
G1 X68.401 Y87.031 E31.74096
G1 X68.41 Y86.366 E31.77193
G1 X68.462 Y85.446 E31.81484
G1 X68.594 Y84.535 E31.8577
G1 X68.805 Y83.639 E31.90056
G1 X69.092 Y82.764 E31.94344
G1 X69.455 Y81.918 E31.98631
G1 X69.889 Y81.106 E32.02918
G1 X70.392 Y80.335 E32.07205
G1 X70.961 Y79.611 E32.11492
G1 X71.589 Y78.939 E32.15775
G1 X72.274 Y78.323 E32.20065
G0 F6000 X72.662 Y78.524
G1 F1200 X73.394 Y77.994 E32.24273
G1 X74.169 Y77.531 E32.28477
G1 X74.982 Y77.138 E32.32682
G1 X75.827 Y76.818 E32.36889
G1 X76.696 Y76.575 E32.41091
G1 X77.584 Y76.409 E32.45297
G1 X78.723 Y76.313 E32.5062
G1 X79.044 Y76.304 E32.52115
G1 X79.33 Y76.3 E32.53447
G1 X155.293 Y76.3 E36.07162
G1 X156.137 Y76.311 E36.11093
G1 X157.039 Y76.364 E36.153
G1 X157.932 Y76.496 E36.19503
G1 X158.81 Y76.707 E36.23708
G1 X159.666 Y76.995 E36.27913
G1 X160.493 Y77.357 E36.32117
G1 X161.285 Y77.792 E36.36325
G1 X162.036 Y78.294 E36.40531
G1 X162.739 Y78.861 E36.44736
G1 X163.389 Y79.488 E36.48942
G1 X163.981 Y80.17 E36.53147
G1 X164.511 Y80.901 E36.57351
G1 X164.973 Y81.677 E36.61557
G1 X165.366 Y82.49 E36.65761
G1 X165.684 Y83.335 E36.69965
G1 X165.927 Y84.205 E36.74172
G1 X166.092 Y85.093 E36.78377
G1 X166.187 Y86.223 E36.83658
G1 X166.196 Y86.543 E36.85148
G1 X166.2 Y86.83 E36.86485
G1 X166.199 Y147.89 E39.70806
G1 X166.19 Y148.617 E39.74191
G1 X166.139 Y149.519 E39.78398
G1 X166.008 Y150.413 E39.82605
G1 X165.799 Y151.291 E39.86808
G1 X165.513 Y152.148 E39.91015
G1 X165.152 Y152.976 E39.95221
G1 X164.72 Y153.768 E39.99422
G1 X164.219 Y154.52 E40.03629
G1 X163.653 Y155.224 E40.07835
G1 X163.028 Y155.875 E40.12038
G1 X162.347 Y156.469 E40.16245
G1 X161.616 Y157 E40.20452
G1 X160.842 Y157.464 E40.24654
G1 X160.029 Y157.858 E40.28861
G1 X159.185 Y158.178 E40.33064
G1 X158.315 Y158.423 E40.37273
G1 X157.428 Y158.589 E40.41475
G1 X156.277 Y158.687 E40.46854
G1 X155.956 Y158.696 E40.48349
G1 X155.67 Y158.7 E40.49681
G1 X79.575 Y158.699 E44.04011
G1 X78.877 Y158.69 E44.07262
G1 X77.976 Y158.639 E44.11464
G1 X77.082 Y158.507 E44.15672
G1 X76.204 Y158.298 E44.19874
G1 X75.347 Y158.011 E44.24083
G1 X74.52 Y157.65 E44.28284
G1 X73.727 Y157.217 E44.32492
G1 X72.976 Y156.716 E44.36695
G1 X72.272 Y156.15 E44.40902
G1 X71.621 Y155.524 E44.45107
G1 X71.028 Y154.843 E44.49312
G1 X70.498 Y154.112 E44.53516
G1 X70.034 Y153.337 E44.57722
G1 X69.64 Y152.524 E44.61929
G1 X69.32 Y151.68 E44.66132
G1 X69.076 Y150.81 E44.70339
G1 X68.91 Y149.922 E44.74546
G1 X68.813 Y148.767 E44.79943
G1 X68.804 Y148.434 E44.81494
G1 X68.8 Y148.158 E44.82779
G1 X68.801 Y87.036 E47.67389
G1 X68.81 Y86.371 E47.70486
G1 X68.862 Y85.469 E47.74693
G1 X68.994 Y84.576 E47.78896
G1 X69.204 Y83.698 E47.831
G1 X69.491 Y82.841 E47.87308
G1 X69.853 Y82.014 E47.91512
G1 X70.286 Y81.222 E47.95715
G1 X70.788 Y80.471 E47.99921
G1 X71.355 Y79.767 E48.0413
G1 X71.981 Y79.117 E48.08332
G1 X72.662 Y78.524 E48.12537
G1 F2700 E43.12537
;MESH:Bo??tierS63 v4.stl
G0 F6000 X79.42 Y85.835
G0 X79.42 Y86.92
G0 X155.218 Y87.282
G0 X155.4 Y147.9
;TYPE:WALL-INNER
G1 F2700 E48.12537
G1 F1200 X79.6 Y147.9 E51.65494
G1 X79.6 Y87.1 E54.48604
G1 X155.4 Y87.1 E58.01561
G1 X155.4 Y147.9 E60.84671
G0 F6000 X155.8 Y148.3
;TYPE:WALL-OUTER
G1 F1200 X79.2 Y148.3 E64.41353
G1 X79.2 Y86.7 E67.28188
G1 X155.8 Y86.7 E70.8487
G1 X155.8 Y148.3 E73.71705
G0 F6000 X155.53 Y148.03
G0 X155.29 Y147.51
G0 X155.01 Y147.51
;TYPE:SKIN
G1 F1200 X79.99 Y147.51 E77.2103
G1 X79.99 Y87.49 E80.00508
G1 X155.01 Y87.49 E83.49832
G1 X155.01 Y147.51 E86.29311
G1 F2700 E81.29311
G0 F6000 X155.29 Y147.51
G0 X155.29 Y88.098
G1 F2700 E86.29311
G0 F6000 X154.849 Y88.098
G1 F1200 X154.401 Y87.65 E86.32261
G0 F6000 X153.835 Y87.65
G1 F1200 X154.849 Y88.664 E86.38938
G0 F6000 X154.849 Y89.229
G1 F1200 X153.269 Y87.65 E86.49339
G0 F6000 X152.703 Y87.65
G1 F1200 X154.849 Y89.795 E86.63468
G0 F6000 X154.849 Y90.361
G1 F1200 X152.138 Y87.65 E86.8132
G0 F6000 X151.572 Y87.65
G1 F1200 X154.849 Y90.926 E87.02897
G0 F6000 X154.849 Y91.492
G1 F1200 X151.006 Y87.65 E87.282
G0 F6000 X150.441 Y87.65
G1 F1200 X154.849 Y92.058 E87.57228
G0 F6000 X154.849 Y92.623
G1 F1200 X149.875 Y87.65 E87.89979
G0 F6000 X149.309 Y87.65
G1 F1200 X154.849 Y93.189 E88.26458
G0 F6000 X154.849 Y93.755
G1 F1200 X148.744 Y87.65 E88.6666
G0 F6000 X148.178 Y87.65
G1 F1200 X154.849 Y94.32 E89.10586
G0 F6000 X154.849 Y94.886
G1 F1200 X147.612 Y87.65 E89.5824
G0 F6000 X147.047 Y87.65
G1 F1200 X154.849 Y95.452 E90.09617
G0 F6000 X154.849 Y96.018
G1 F1200 X146.481 Y87.65 E90.64722
G0 F6000 X145.915 Y87.65
G1 F1200 X154.849 Y96.583 E91.23551
G0 F6000 X154.849 Y97.149
G1 F1200 X145.35 Y87.65 E91.86103
G0 F6000 X144.784 Y87.65
G1 F1200 X154.849 Y97.715 E92.52383
G0 F6000 X154.849 Y98.28
G1 F1200 X144.218 Y87.65 E93.22387
G0 F6000 X143.652 Y87.65
G1 F1200 X154.849 Y98.846 E93.96118
G0 F6000 X154.849 Y99.412
G1 F1200 X143.087 Y87.65 E94.73572
G0 F6000 X142.521 Y87.65
G1 F1200 X154.849 Y99.977 E95.54751
G0 F6000 X154.849 Y100.543
G1 F1200 X141.955 Y87.65 E96.39657
G0 F6000 X141.39 Y87.65
G1 F1200 X154.849 Y101.109 E97.28287
G0 F6000 X154.849 Y101.674
G1 F1200 X140.824 Y87.65 E98.2064
G0 F6000 X140.258 Y87.65
G1 F1200 X154.849 Y102.24 E99.16721
G0 F6000 X154.849 Y102.806
G1 F1200 X139.693 Y87.65 E100.16526
G0 F6000 X139.127 Y87.65
G1 F1200 X154.849 Y103.371 E101.20055
G0 F6000 X154.849 Y103.937
G1 F1200 X138.561 Y87.65 E102.27311
G0 F6000 X137.996 Y87.65
G1 F1200 X154.849 Y104.503 E103.38291
G0 F6000 X154.849 Y105.068
G1 F1200 X137.43 Y87.65 E104.52995
G0 F6000 X136.864 Y87.65
G1 F1200 X154.849 Y105.634 E105.71426
G0 F6000 X154.849 Y106.2
G1 F1200 X136.299 Y87.65 E106.93581
G0 F6000 X135.733 Y87.65
G1 F1200 X154.849 Y106.766 E108.19463
G0 F6000 X154.849 Y107.331
G1 F1200 X135.167 Y87.65 E109.49069
G0 F6000 X134.602 Y87.65
G1 F1200 X154.849 Y107.897 E110.82399
G0 F6000 X154.849 Y108.463
G1 F1200 X134.036 Y87.65 E112.19456
G0 F6000 X133.47 Y87.65
G1 F1200 X154.849 Y109.028 E113.60237
G0 F6000 X154.849 Y109.594
G1 F1200 X132.904 Y87.65 E115.04745
G0 F6000 X132.339 Y87.65
G1 F1200 X154.849 Y110.16 E116.52977
G0 F6000 X154.849 Y110.725
G1 F1200 X131.773 Y87.65 E118.04934
G0 F6000 X131.207 Y87.65
G1 F1200 X154.849 Y111.291 E119.60617
G0 F6000 X154.849 Y111.857
G1 F1200 X130.642 Y87.65 E121.20024
G0 F6000 X130.076 Y87.65
G1 F1200 X154.849 Y112.422 E122.83155
G0 F6000 X154.849 Y112.988
G1 F1200 X129.51 Y87.65 E124.50014
G0 F6000 X128.945 Y87.65
G1 F1200 X154.849 Y113.554 E126.20596
G0 F6000 X154.849 Y114.119
G1 F1200 X128.379 Y87.65 E127.94902
G0 F6000 X127.813 Y87.65
G1 F1200 X154.849 Y114.685 E129.72935
G0 F6000 X154.849 Y115.251
G1 F1200 X127.248 Y87.65 E131.54693
G0 F6000 X126.682 Y87.65
G1 F1200 X154.849 Y115.817 E133.40177
G0 F6000 X154.849 Y116.382
G1 F1200 X126.116 Y87.65 E135.29386
G0 F6000 X125.551 Y87.65
G1 F1200 X154.849 Y116.948 E137.22318
G0 F6000 X154.849 Y117.514
G1 F1200 X124.985 Y87.65 E139.18977
G0 F6000 X124.419 Y87.65
G1 F1200 X154.849 Y118.079 E141.19361
G0 F6000 X154.849 Y118.645
G1 F1200 X123.853 Y87.65 E143.23472
G0 F6000 X123.288 Y87.65
G1 F1200 X154.849 Y119.211 E145.31306
G0 F6000 X154.849 Y119.776
G1 F1200 X122.722 Y87.65 E147.42865
G0 F6000 X122.156 Y87.65
G1 F1200 X154.849 Y120.342 E149.5815
G0 F6000 X154.849 Y120.908
G1 F1200 X121.591 Y87.65 E151.7716
G0 F6000 X121.025 Y87.65
G1 F1200 X154.849 Y121.473 E153.99893
G0 F6000 X154.849 Y122.039
G1 F1200 X120.459 Y87.65 E156.26354
G0 F6000 X119.894 Y87.65
G1 F1200 X154.849 Y122.605 E158.56539
G0 F6000 X154.849 Y123.17
G1 F1200 X119.328 Y87.65 E160.90447
G0 F6000 X118.762 Y87.65
G1 F1200 X154.849 Y123.736 E163.28083
G0 F6000 X154.849 Y124.302
G1 F1200 X118.197 Y87.65 E165.69443
G0 F6000 X117.631 Y87.65
G1 F1200 X154.849 Y124.867 E168.14526
G0 F6000 X154.849 Y125.433
G1 F1200 X117.065 Y87.65 E170.63337
G0 F6000 X116.5 Y87.65
G1 F1200 X154.849 Y125.999 E173.15872
G0 F6000 X154.849 Y126.565
G1 F1200 X115.934 Y87.65 E175.72134
G0 F6000 X115.368 Y87.65
G1 F1200 X154.849 Y127.13 E178.3212
G0 F6000 X154.849 Y127.696
G1 F1200 X114.803 Y87.65 E180.95829
G0 F6000 X114.237 Y87.65
G1 F1200 X154.849 Y128.262 E183.63266
G0 F6000 X154.849 Y128.827
G1 F1200 X113.671 Y87.65 E186.34427
G0 F6000 X113.105 Y87.65
G1 F1200 X154.849 Y129.393 E189.09315
G0 F6000 X154.849 Y129.959
G1 F1200 X112.54 Y87.65 E191.87927
G0 F6000 X111.974 Y87.65
G1 F1200 X154.849 Y130.524 E194.70263
G0 F6000 X154.849 Y131.09
G1 F1200 X111.408 Y87.65 E197.56326
G0 F6000 X110.843 Y87.65
G1 F1200 X154.849 Y131.656 E200.46113
G0 F6000 X154.849 Y132.221
G1 F1200 X110.277 Y87.65 E203.39624
G0 F6000 X109.711 Y87.65
G1 F1200 X154.849 Y132.787 E206.36863
G0 F6000 X154.849 Y133.353
G1 F1200 X109.146 Y87.65 E209.37825
G0 F6000 X108.58 Y87.65
G1 F1200 X154.849 Y133.918 E212.42511
G0 F6000 X154.849 Y134.484
G1 F1200 X108.014 Y87.65 E215.50924
G0 F6000 X107.449 Y87.65
G1 F1200 X154.849 Y135.05 E218.63061
G0 F6000 X154.849 Y135.616
G1 F1200 X106.883 Y87.65 E221.78925
G0 F6000 X106.317 Y87.65
G1 F1200 X154.849 Y136.181 E224.98513
G0 F6000 X154.849 Y136.747
G1 F1200 X105.752 Y87.65 E228.21825
G0 F6000 X105.186 Y87.65
G1 F1200 X154.849 Y137.313 E231.48865
G0 F6000 X154.849 Y137.878
G1 F1200 X104.62 Y87.65 E234.79628
G0 F6000 X104.055 Y87.65
G1 F1200 X154.849 Y138.444 E238.14115
G0 F6000 X154.849 Y139.01
G1 F1200 X103.489 Y87.65 E241.5233
G0 F6000 X102.923 Y87.65
G1 F1200 X154.849 Y139.575 E244.94268
G0 F6000 X154.849 Y140.141
G1 F1200 X102.357 Y87.65 E248.39933
G0 F6000 X101.792 Y87.65
G1 F1200 X154.849 Y140.707 E251.89323
G0 F6000 X154.849 Y141.272
G1 F1200 X101.226 Y87.65 E255.42436
G0 F6000 X100.66 Y87.65
G1 F1200 X154.849 Y141.838 E258.99277
G0 F6000 X154.849 Y142.404
G1 F1200 X100.095 Y87.65 E262.59841
G0 F6000 X99.529 Y87.65
G1 F1200 X154.849 Y142.969 E266.24129
G0 F6000 X154.849 Y143.535
G1 F1200 X98.963 Y87.65 E269.92145
G0 F6000 X98.398 Y87.65
G1 F1200 X154.849 Y144.101 E273.63884
G0 F6000 X154.849 Y144.666
G1 F1200 X97.832 Y87.65 E277.39348
G0 F6000 X97.266 Y87.65
G1 F1200 X154.849 Y145.232 E281.18538
G0 F6000 X154.849 Y145.798
G1 F1200 X96.701 Y87.65 E285.01453
G0 F6000 X96.135 Y87.65
G1 F1200 X154.849 Y146.364 E288.88095
G0 F6000 X154.849 Y146.929
G1 F1200 X95.569 Y87.65 E292.7846
G0 F6000 X95.004 Y87.65
G1 F1200 X154.702 Y147.349 E296.71585
G0 F6000 X154.137 Y147.349
G1 F1200 X94.438 Y87.65 E300.64713
G0 F6000 X93.872 Y87.65
G1 F1200 X153.571 Y147.349 E304.57841
G0 F6000 X153.005 Y147.349
